svg/u1f3f9.svg

<svg viewBox="0 0 128 128" xmlns="http://www.w3.org/2000/svg">
  <path d="M4.31,11.47c-1.71,2.99,0.97,9.35,14.07,11.95c16.31,3.24,33.88-3.32,47.13-1.01 c7.54,1.32,12.32,3.03,15.06,4.27c2.13,0.97,2.13,1.05,2.13,1.05l3.38-10.72c0,0-9.41-5.1-22.03-5.66s-22,3.57-34.51,3.24 C10.68,14.09,6.99,6.78,4.31,11.47z" fill="#966738"/>
  <path d="M102.24,45.73l10.38-4.24c0,0,5.38,7.51,7.28,22.25c2.27,17.61-3.24,29.26-1.45,39.2 s5.7,15.3,5.36,17.65c-0.34,2.35-2.01,4.91-4.24,3.69c-2.23-1.23-9.19-10.17-9.49-22.56c-0.34-13.74,3.47-25.2,0.34-37.41 C106.94,50.78,102.24,45.73,102.24,45.73z" fill="#966738"/>
  <path d="M85.28,16.61l-4.49,10.18c0,0,6.01,2.65,12.64,8.69c5.79,5.28,9.94,11.73,9.94,11.73l9.27-5.7 c0,0-4.81-8.52-11.84-14.63C92.43,19.6,85.28,16.61,85.28,16.61z" fill="#D29F6C"/>
  <polygon points="102.7,21.02 33.72,91.64 34.02,94.92 37,95.37 106.73,24.9 " fill="#F3C976"/>
  <path d="M105.74,17.62l-3.59,4.01l3.94,3.94l4.16-3.8c0,0,6.62,1.27,7.33,0.85 c0.97-0.58,6.78-18.55,6.48-19.02c-0.49-0.77-6.56,1.66-10.42,3.03c-4.58,1.62-8.45,3.18-8.8,3.66 C104.05,11.35,105.74,17.62,105.74,17.62z" fill="#858585"/>
  <path d="M115.36,122.03c-0.17,0-0.35-0.02-0.52-0.07L31.51,99.38c-0.68-0.19-1.22-0.72-1.4-1.4L8.87,20.94 c-0.1-0.37-0.1-0.75,0.02-1.12l2.58-8.53l3.82,1.24l-1.98,9.31L33.5,95.32l81.06,22.65l6.04-6.97l1.52,3.93l-5.21,6.39 C116.51,121.78,115.95,122.03,115.36,122.03z" fill="#B8CED4"/>
  <path d="M33.81,92.2L37,95.37c0,0-3.37,4.09-3.91,4.14c-0.32,0.03-3.09-2.24-2.87-2.74 C30.44,96.28,33.81,92.2,33.81,92.2z" fill="#5D6265"/>
  <path d="M51.7,73.77c-0.03,0.08-5.32,5.65-10.2,10.8c-3.78,3.99-7.36,7.86-7.63,7.86 c-0.61,0-6.12-5.2-6.21-6.41S36,77.54,40,74.71C48.26,68.86,51.7,73.77,51.7,73.77z" fill="#DB0D2A"/>
  <path d="M54.84,77c-0.21,0.19-6.27,6.37-11.3,11.5c-3.45,3.52-6.51,6.53-6.55,6.82 c-0.05,0.41,4.62,5.81,5.11,5.81c0.9,0,9.73-9.42,12.47-14.17C58.61,79.96,54.84,77,54.84,77z" fill="#DB0D2A"/>
</svg>

<svg viewBox="0 0 128 128" xmlns="http://www.w3.org/2000/svg">
  <defs/>
  <path d="M4.31,11.47 C2.6,14.46 5.28,20.82 18.38,23.42 C34.69,26.66 52.26,20.1 65.51,22.41 C73.05,23.73 77.83,25.44 80.57,26.68 C82.7,27.65 82.7,27.73 82.7,27.73 L86.08,17.01 C86.08,17.01 76.67,11.91 64.05,11.35 C51.43,10.79 42.05,14.92 29.54,14.59 C10.68,14.09 6.99,6.78 4.31,11.47 Z" fill="#966738"/>
  <path d="M102.24,45.73 L112.62,41.49 C112.62,41.49 118,49 119.9,63.74 C122.17,81.35 116.66,93 118.45,102.94 C120.24,112.88 124.15,118.24 123.81,120.59 C123.47,122.94 121.8,125.5 119.57,124.28 C117.34,123.05 110.38,114.11 110.08,101.72 C109.74,87.98 113.55,76.52 110.42,64.31 C106.94,50.78 102.24,45.73 102.24,45.73 Z" fill="#966738"/>
  <path d="M85.28,16.61 L80.79,26.79 C80.79,26.79 86.8,29.44 93.43,35.48 C99.22,40.76 103.37,47.21 103.37,47.21 L112.64,41.51 C112.64,41.51 107.83,32.99 100.8,26.88 C92.43,19.6 85.28,16.61 85.28,16.61 Z" fill="#D29F6C"/>
  <path d="M102.7,21.02 L33.72,91.64 L34.02,94.92 L37,95.37 L106.73,24.9 Z" fill="#F3C976"/>
  <path d="M105.74,17.62 L102.15,21.63 L106.09,25.57 L110.25,21.77 C110.25,21.77 116.87,23.04 117.58,22.62 C118.55,22.04 124.36,4.07 124.06,3.6 C123.57,2.83 117.5,5.26 113.64,6.63 C109.06,8.25 105.19,9.81 104.84,10.29 C104.05,11.35 105.74,17.62 105.74,17.62 Z" fill="#858585"/>
  <path d="M115.36,122.03 C115.19,122.03 115.01,122.01 114.84,121.96 L31.51,99.38 C30.83,99.19 30.29,98.66 30.11,97.98 L8.87,20.94 C8.77,20.57 8.77,20.19 8.89,19.82 L11.47,11.29 L15.29,12.53 L13.31,21.84 L33.5,95.32 L114.56,117.97 L120.6,111 L122.12,114.93 L116.91,121.32 C116.51,121.78 115.95,122.03 115.36,122.03 Z" fill="#B8CED4"/>
  <path d="M33.81,92.2 L37,95.37 C37,95.37 33.63,99.46 33.09,99.51 C32.77,99.54 30,97.27 30.22,96.77 C30.44,96.28 33.81,92.2 33.81,92.2 Z" fill="#5D6265"/>
  <path d="M51.7,73.77 C51.67,73.85 46.38,79.42 41.5,84.57 C37.72,88.56 34.14,92.43 33.87,92.43 C33.26,92.43 27.75,87.23 27.66,86.02 C27.57,84.81 36,77.54 40,74.71 C48.26,68.86 51.7,73.77 51.7,73.77 Z" fill="#DB0D2A"/>
  <path d="M54.84,77 C54.63,77.19 48.57,83.37 43.54,88.5 C40.09,92.02 37.03,95.03 36.99,95.32 C36.94,95.73 41.61,101.13 42.1,101.13 C43,101.13 51.83,91.71 54.57,86.96 C58.61,79.96 54.84,77 54.84,77 Z" fill="#DB0D2A"/>
</svg>
